packages/core/src/svgs/tokens/mono/DFX.svg

<svg width="24" height="24" viewBox="0 0 24 24" fill="none" xmlns="http://www.w3.org/2000/svg">
<path d="M11.9999 2.00617V12.0437L8.0687 8.04364C6.79996 9.13109 6.41247 11.1873 6.35622 12.0437C6.35622 15.4499 9.75615 17.8249 11.9999 17.5811V21.9998C4.11249 21.6249 2.04375 15.206 2 12.0437C2 5.01865 8.05621 1.84367 11.9999 2.00617Z" fill="white"/>
<path d="M12 21.9936V11.9562L15.9312 15.9561C17.1999 14.8687 17.5874 12.8124 17.6437 11.9562C17.6437 8.54996 14.2438 6.17498 12 6.41872V2C19.8875 2.37501 21.9563 8.79371 22 11.9562C22 18.9811 15.9437 22.1562 12 21.9936Z" fill="white"/>
</svg>

<svg xmlns="http://www.w3.org/2000/svg" width="24" height="24" fill="none" viewBox="0 0 24 24">
    <path fill="#fff" d="M12 2.006v10.038l-3.931-4c-1.269 1.087-1.657 3.143-1.713 4 0 3.406 3.4 5.78 5.644 5.537V22c-7.888-.375-9.956-6.794-10-9.956 0-7.025 6.056-10.2 10-10.038m0 19.988V11.956l3.931 4c1.269-1.087 1.656-3.144 1.713-4 0-3.406-3.4-5.781-5.644-5.537V2c7.887.375 9.956 6.794 10 9.956 0 7.025-6.056 10.2-10 10.038"/>
</svg>
